!!!!SEGMENT: Ser3018-Las_je_my_plains.krn
!!!id: Ser3018
!!!AGN: Chanson
!!!voices: 4
!!!COM: Claudin de Sermisy
!!!OTL: Las, je my plains
**kern	**kern	**kern	**kern
*part4	*part3	*part2	*part1
*staff4	*staff3	*staff2	*staff1
*I"Bassus	*I"Tenor	*I"Altus	*I"Superius
*I'B	*I'T	*I'A	*I'S
*clefF4	*clefGv2	*clefG2	*clefG2
*k[b-]	*k[b-]	*k[b-]	*k[b-]
*F:	*F:	*F:	*F:
*M2/1	*M2/1	*M2/1	*M2/1
*met(C|)	*met(C|)	*met(C|)	*met(C|)
=1	=1	=1	=1
0r	0r	1f	1f
.	.	2d	2a
.	.	2d	2b-y
=2	=2	=2	=2
1F	2r	1c	4cc
.	.	.	4b-y
.	2F	.	4a
.	.	.	4g
2D	2A	2r	1f
2D	2B-y	2f	.
=3	=3	=3	=3
1C	1c	2f	2r
.	.	2e	2cc
1r	2r	2d	2dd
.	2c	[2g	2cc
=4	=4	=4	=4
1r	2.d	4g]	2b-y
.	.	4f	.
.	.	1f	2a
.	4c	.	.
2r	2B-y	.	2.g
2C	2c	2e	.
.	.	.	8fL
.	.	.	8gJ
=5	=5	=5	=5
2.D	1A	2.f	2f
.	.	.	2a
4C	.	4e	.
2BB-y	4B-y	2d	4g
.	4A	.	4f
2D	4G	2B-y	[2f
.	4F	.	.
=6	=6	=6	=6
1C	1G	1c	2f]
.	.	.	2e
1F	2F	1A	1f
.	2c	.	.
=7	=7	=7	=7
1r	2A	2f	1r
.	2B-y	2d	.
2r	1c	2e	1cc
2F	.	2f	.
=8	=8	=8	=8
2D	1r	2r	2dd
2E	.	2c	2cc
[1F	2r	2.A	4cc
.	.	.	4b-y
.	2c	.	4a
.	.	4B-y	4g
=9	=9	=9	=9
1F]	2.A	2c	2a
.	.	2c	4f
.	4B-y	.	4g
1F	2c	[1f	4a
.	.	.	4b-y
.	2c	.	4cc
.	.	.	4a
=10	=10	=10	=10
2BB-y	2d	2f]	2b-y
2F	2c	2f	2a
2F	2c	2f	2a
2G	2B-y	2e	2g
=11	=11	=11	=11
2F	1A	1f	1a
1c	.	.	.
.	1c	2r	1r
2A	.	[2c	.
=12	=12	=12	=12
2A	2A	2c]	1cc
1F	2A	2A	.
.	2.F	2A	2a
2F	.	[2F	2a
.	4G	.	.
=13	=13	=13	=13
2D	1A	2F]	1.f
2D	.	2F	.
2BB-y	2r	[1f	.
2BB-y	2d	.	2b-y
=14	=14	=14	=14
2F	2c	2f]	2a
2F	2A	2d	2a
2E-X	2B-y	2e-X	2g
2F	2A	2c	2f
=15	=15	=15	=15
1C	1G	1c	1e
1r	2r	1f	2r
.	2F	.	2f
=16	=16	=16	=16
1r	2F	2d	2a
.	2G	2d	2b-y
1F	2A	2c	4cc
.	.	.	4b-y
.	2F	2r	4a
.	.	.	4g
=17	=17	=17	=17
2D	2A	2r	1f
2D	2B-y	2f	.
1C	1c	2f	2r
.	.	2e	2cc
=18	=18	=18	=18
0r	2r	2d	2dd
.	2c	1g	2cc
.	2.d	.	2b-y
.	.	[2f	2a
.	4c	.	.
=19	=19	=19	=19
2r	2B-y	2f]	2.g
2C	2c	2e	.
.	.	.	8fL
.	.	.	8gJ
2.D	1A	2.f	4f
.	.	.	4e
.	.	.	2a
4C	.	4e	.
=20	=20	=20	=20
2BB-y	4B-y	2d	4g
.	4A	.	4f
2D	4G	2B-y	1f
.	4F	.	.
1C	1G	1c	.
.	.	.	2e
=21	=21	=21	=21
0F	1F	1A	1f
.	2r	1f	2r
.	2F	.	2f
=22	=22	=22	=22
1r	2F	2d	2a
.	2G	2d	2b-y
1F	2A	1c	4cc
.	.	.	4b-y
.	2F	.	4a
.	.	.	4g
=23	=23	=23	=23
2D	2A	2r	1f
2D	2B-y	2f	.
1C	1c	2f	2r
.	.	2e	2cc
=24	=24	=24	=24
0r	2r	2d	2dd
.	2c	1g	2cc
.	2.d	.	2b-y
.	.	[2f	2a
.	4c	.	.
=25	=25	=25	=25
2r	2B-y	2f]	2.g
2C	2c	2e	.
.	.	.	8fL
.	.	.	8gJ
2.D	1A	2.f	4f
.	.	.	4e
.	.	.	2a
4C	.	4e	.
=26	=26	=26	=26
2BB-y	4B-y	2d	4g
.	4A	.	4f
2D	4G	2B-y	1f
.	4F	.	.
1C	1G	1c	.
.	.	.	2e
=27	=27	=27	=27
00Fl	00Fl	00Al	00fl
==	==	==	==
*-	*-	*-	*-
!!!system-decoration: [*]
!!!RDF**kern: i = editorial accidental
!!!RDF**kern: l = terminal long
!!!ENC: Benjamin Ory
!!!END: 2025/3/1
!!!EED: Benjamin Ory
!!!EEV: 2025/03/01
!!!YEC: Copyright 2025 Benjamin Ory, All Rights Reserved
!!!ONB: Translated from MusicXML on 2025/03/01